X: 20872
T: le PETIT TAMBOUR
%R: march
B: "Edinburgh Repository of Music" v.2 p.87 #2
F: http://digital.nls.uk/special-collections-of-printed-music/pageturner.cfm?id=87776133
Z: 2015 John Chambers <jc:trillian.mit.edu>
M: 2/4
L: 1/16
K: F
ag !segno!|\
f2c2A2c2 | f6 ef | g2g2g2g2 | g3ag2 c2 |\
a2aa a2a2 | a2ba g2ag | (fa)gf (ef)ge | f6 H:|
fe |\
d2{ed^c}d2e2f2 | g3f e2fe | d2{ed^c}d2e2f2 | {e}g6 fe |\
d2d2 e2f2 | g2(ag) f2(gf) | e2(fe) d2(ed) | c6 c2 |
f2ff f2f2 | f6 c2 | f2c2A2F2 | c2c'2 z2c2 |\
f2ff f2f2 | f6 ef | (gf)ed (ed)c=B | cd(ef g^ga"_D.C."g) !segno!|]
